public/images/hashed/d2462b64f379a37236c4a08581dc8ffc.svg

<?xml version="1.0" encoding="UTF-8"?>
<svg width="80px" height="80px" viewBox="0 0 80 80" version="1.1" xmlns="http://www.w3.org/2000/svg" xmlns:xlink="http://www.w3.org/1999/xlink">
    <!-- Generator: Sketch 64 (93537) - https://sketch.com -->
    <title>Icon-Architecture/64/Arch_Amazon-Quantum-Ledger-Database_64</title>
    <desc>Created with Sketch.</desc>
    <defs>
        <linearGradient x1="0%" y1="100%" x2="100%" y2="0%" id="linearGradient-1">
            <stop stop-color="#2E27AD" offset="0%"></stop>
            <stop stop-color="#527FFF" offset="100%"></stop>
        </linearGradient>
    </defs>
    <g id="Icon-Architecture/64/Arch_Amazon-Quantum-Ledger-Database_64" stroke="none" stroke-width="1" fill="none" fill-rule="evenodd">
        <g id="Icon-Architecture-BG/64/Database" fill="url(#linearGradient-1)">
            <rect id="Rectangle" x="0" y="0" width="80" height="80"></rect>
        </g>
        <path d="M66,47.2832214 L56,47.2832214 L56,43.2488915 L51,43.2488915 L51,47.2832214 L41,47.2832214 L41,43.2488915 L36,43.2488915 L36,47.2832214 L26,47.2832214 L26,37.1973967 L35.564,37.1973967 C35.731,37.3446498 35.897,37.5050144 36,37.6260443 L36,42.240309 L41,42.240309 L41,37.3325468 C41,37.2831262 41.001,37.2387486 41.002,37.1973967 L51,37.1973967 L51,42.240309 L56,42.240309 L56,37.1973967 L66,37.1973967 L66,47.2832214 Z M66.121,35.1802318 L55.879,35.1802318 C54.843,35.1802318 54,36.0304668 54,37.0753582 L54,40.2231441 L53,40.2231441 L53,37.5796495 C53.085,37.3597785 53.115,37.1187273 53.086,36.8766675 C52.992,36.1081277 52.325,35.5413043 52.122,35.3869912 L51.854,35.1802318 L40.287,35.1802318 C39.807,35.1802318 39,35.4596091 39,37.3325468 L39,40.2231441 L38,40.2231441 L38,37.114693 L37.911,36.9170108 C37.615,36.2563893 36.776,35.5786219 36.526,35.3869912 L36.259,35.1802318 L25.879,35.1802318 C24.843,35.1802318 24,36.0304668 24,37.0753582 L24,47.4052599 C24,48.4501513 24.843,49.3003863 25.879,49.3003863 L36.121,49.3003863 C37.157,49.3003863 38,48.4501513 38,47.4052599 L38,45.2660564 L39,45.2660564 L39,47.6493368 C39,48.9554511 39.842,49.3003863 40.287,49.3003863 L51.517,49.3003863 C52.235,49.3003863 53,48.72146 53,47.6493368 L53,45.2660564 L54.001,45.2660564 L54.002,47.5817618 C53.947,48.4037565 54.608,49.0875754 55.648,49.2832404 L66.121,49.3003863 C67.157,49.3003863 68,48.4501513 68,47.4052599 L68,37.0753582 C68,36.0304668 67.157,35.1802318 66.121,35.1802318 L66.121,35.1802318 Z M63,40.2221355 L63.002,44.257474 L59,44.2584826 L58.999,40.2231441 L63,40.2221355 Z M58.999,46.2746389 L63.001,46.2746389 C64.104,46.2746389 65,45.3699404 65,44.2584826 L65,40.2221355 C65,39.1106777 64.104,38.2059792 63.001,38.2059792 L58.999,38.2059792 C57.896,38.2059792 57,39.1106777 57,40.2221355 L57,44.2584826 C57,45.3699404 57.896,46.2746389 58.999,46.2746389 L58.999,46.2746389 Z M48,44.2413367 C48,44.2504139 47.993,44.257474 47.984,44.257474 L44,44.2413367 L44.016,40.2231441 L48,40.2392814 L48,44.2413367 Z M47.984,38.2059792 L44.016,38.2059792 C42.904,38.2059792 42,39.1177377 42,40.2392814 L42,44.2413367 C42,45.3628804 42.904,46.2746389 44.016,46.2746389 L47.984,46.2746389 C49.096,46.2746389 50,45.3628804 50,44.2413367 L50,40.2392814 C50,39.1177377 49.096,38.2059792 47.984,38.2059792 L47.984,38.2059792 Z M29,44.2584826 L28.999,40.2231441 L33,40.2221355 L33.002,44.257474 L29,44.2584826 Z M33.001,38.2059792 L28.999,38.2059792 C27.896,38.2059792 27,39.1106777 27,40.2221355 L27,44.2584826 C27,45.3699404 27.896,46.2746389 28.999,46.2746389 L33.001,46.2746389 C34.104,46.2746389 35,45.3699404 35,44.2584826 L35,40.2221355 C35,39.1106777 34.104,38.2059792 33.001,38.2059792 L33.001,38.2059792 Z M30,16.0171649 C39.429,16.0171649 46,18.9400369 46,21.5643685 C46,24.1887001 39.429,27.1115721 30,27.1115721 C20.571,27.1115721 14,24.1887001 14,21.5643685 C14,18.9400369 20.571,16.0171649 30,16.0171649 L30,16.0171649 Z M46,59.3095587 C46,61.9923881 39.429,64.9828351 30,64.9828351 C20.571,64.9828351 14,61.9923881 14,59.3095587 L14,50.6871872 C17.184,53.3901882 23.189,55.2369027 29.545,55.2369027 C37.58,55.2369027 41.782,53.3316904 41.957,53.2510038 L41.121,51.4174009 C41.082,51.4355554 37.146,53.2197378 29.545,53.2197378 C21.77,53.2197378 15.518,50.3684751 14,47.6614398 L14,37.7914518 C15.916,39.5221793 18.818,40.8857828 22.096,41.5020267 L22.463,39.5191536 C17.949,38.6709357 14.937,36.4147367 14,34.6426573 L14,25.1569392 C17.19,27.7520219 23.728,29.128737 30,29.128737 C36.272,29.128737 42.81,27.7520219 46,25.1569392 L46,34.1716493 L48,34.1716493 L48,21.0600773 L47.94,21.0600773 C47.321,16.4740528 38.418,14 30,14 C21.582,14 12.679,16.4740528 12.06,21.0600773 L12,21.0600773 L12,59.3095587 C12,63.6938667 19.738,67 30,67 C40.262,67 48,63.6938667 48,59.3095587 L48,51.3175512 L46,51.3175512 L46,59.3095587 Z" id="Amazon-Quantum-Ledger-Database_Icon_64_Squid" fill="#FFFFFF"></path>
    </g>
</svg>

<svg xmlns="http://www.w3.org/2000/svg" width="80" height="80"><defs><linearGradient id="a" x1="0%" x2="100%" y1="100%" y2="0%"><stop offset="0%" stop-color="#2E27AD"/><stop offset="100%" stop-color="#527FFF"/></linearGradient></defs><g fill="none" fill-rule="evenodd"><path fill="url(#a)" d="M0 0h80v80H0z"/><path fill="#FFF" d="M66 47.283H56V43.25h-5v4.034H41V43.25h-5v4.034H26V37.197h9.564c.167.148.333.308.436.429v4.614h5v-4.907l.002-.136H51v5.043h5v-5.043h10v10.086Zm.121-12.103H55.879A1.89 1.89 0 0 0 54 37.075v3.148h-1V37.58c.085-.22.115-.461.086-.703-.094-.769-.761-1.336-.964-1.49l-.268-.207H40.287c-.48 0-1.287.28-1.287 2.153v2.89h-1v-3.108l-.089-.198c-.296-.66-1.135-1.338-1.385-1.53l-.267-.207h-10.38A1.89 1.89 0 0 0 24 37.075v10.33a1.89 1.89 0 0 0 1.879 1.895h10.242A1.89 1.89 0 0 0 38 47.405v-2.139h1v2.383c0 1.306.842 1.651 1.287 1.651h11.23c.718 0 1.483-.579 1.483-1.65v-2.384h1.001l.001 2.316c-.055.822.606 1.506 1.646 1.701l10.473.017A1.89 1.89 0 0 0 68 47.405v-10.33a1.89 1.89 0 0 0-1.879-1.895ZM63 40.222l.002 4.035-4.002.001-.001-4.035H63Zm-4.001 6.053h4.002A2.01 2.01 0 0 0 65 44.258v-4.036a2.01 2.01 0 0 0-1.999-2.016h-4.002A2.01 2.01 0 0 0 57 40.222v4.036a2.01 2.01 0 0 0 1.999 2.017ZM48 44.24c0 .01-.007.016-.016.016L44 44.241l.016-4.018L48 40.24v4.002Zm-.016-6.035h-3.968A2.027 2.027 0 0 0 42 40.239v4.002c0 1.122.904 2.034 2.016 2.034h3.968A2.027 2.027 0 0 0 50 44.24V40.24a2.027 2.027 0 0 0-2.016-2.033ZM29 44.258l-.001-4.035H33l.002 4.034-4.002.001Zm4.001-6.052h-4.002A2.01 2.01 0 0 0 27 40.222v4.036a2.01 2.01 0 0 0 1.999 2.017h4.002A2.01 2.01 0 0 0 35 44.258v-4.036a2.01 2.01 0 0 0-1.999-2.016ZM30 16.017c9.429 0 16 2.923 16 5.547 0 2.625-6.571 5.548-16 5.548s-16-2.923-16-5.548c0-2.624 6.571-5.547 16-5.547ZM46 59.31c0 2.682-6.571 5.673-16 5.673s-16-2.99-16-5.673v-8.623c3.184 2.703 9.189 4.55 15.545 4.55 8.035 0 12.237-1.905 12.412-1.986l-.836-1.834c-.039.019-3.975 1.803-11.576 1.803-7.775 0-14.027-2.852-15.545-5.559v-9.87c1.916 1.731 4.818 3.095 8.096 3.711l.367-1.983c-4.514-.848-7.526-3.104-8.463-4.876v-9.486c3.19 2.595 9.728 3.972 16 3.972s12.81-1.377 16-3.972v9.015h2V21.06h-.06C47.321 16.474 38.418 14 30 14c-8.418 0-17.321 2.474-17.94 7.06H12v38.25C12 63.694 19.738 67 30 67s18-3.306 18-7.69v-7.992h-2v7.992Z"/></g></svg>
